src/assets/outline/CalendarSearch.svg

<svg width="24" height="24" viewBox="0 0 24 24"  xmlns="http://www.w3.org/2000/svg">
<path d="M8 5.75C7.59 5.75 7.25 5.41 7.25 5V2C7.25 1.59 7.59 1.25 8 1.25C8.41 1.25 8.75 1.59 8.75 2V5C8.75 5.41 8.41 5.75 8 5.75Z" />
<path d="M16 5.75C15.59 5.75 15.25 5.41 15.25 5V2C15.25 1.59 15.59 1.25 16 1.25C16.41 1.25 16.75 1.59 16.75 2V5C16.75 5.41 16.41 5.75 16 5.75Z" />
<path d="M18.2 22.15C16.02 22.15 14.25 20.38 14.25 18.2C14.25 16.02 16.02 14.25 18.2 14.25C20.38 14.25 22.15 16.02 22.15 18.2C22.15 20.38 20.38 22.15 18.2 22.15ZM18.2 15.75C16.85 15.75 15.75 16.85 15.75 18.2C15.75 19.55 16.85 20.65 18.2 20.65C19.55 20.65 20.65 19.55 20.65 18.2C20.65 16.85 19.55 15.75 18.2 15.75Z" />
<path d="M21.9999 22.7504C21.8099 22.7504 21.6199 22.6804 21.4699 22.5304L20.4699 21.5304C20.1799 21.2404 20.1799 20.7604 20.4699 20.4704C20.7599 20.1804 21.2399 20.1804 21.5299 20.4704L22.5299 21.4704C22.8199 21.7604 22.8199 22.2404 22.5299 22.5304C22.3799 22.6804 22.1899 22.7504 21.9999 22.7504Z" />
<path d="M8.5 14.4999C8.37 14.4999 8.24 14.4699 8.12 14.4199C7.99 14.3699 7.87999 14.2999 7.78999 14.2099C7.74999 14.1599 7.7 14.1099 7.67 14.0599C7.63 13.9999 7.6 13.9399 7.58 13.8799C7.55 13.8199 7.53 13.7599 7.52 13.6999C7.51 13.6299 7.5 13.5599 7.5 13.4999C7.5 13.2399 7.60999 12.9799 7.78999 12.7899C7.87999 12.6999 7.99 12.6299 8.12 12.5799C8.48 12.4199 8.93001 12.5099 9.21001 12.7899C9.39001 12.9799 9.5 13.2399 9.5 13.4999C9.5 13.5599 9.49 13.6299 9.48 13.6999C9.47 13.7599 9.45 13.8199 9.42 13.8799C9.4 13.9399 9.37 13.9999 9.33 14.0599C9.29 14.1099 9.25001 14.1599 9.21001 14.2099C9.02001 14.3899 8.76 14.4999 8.5 14.4999Z" />
<path d="M12 14.5002C11.74 14.5002 11.48 14.3902 11.29 14.2102C11.11 14.0202 11 13.7702 11 13.5002C11 13.3702 11.03 13.2402 11.08 13.1202C11.13 13.0002 11.2 12.8902 11.29 12.7902C11.66 12.4202 12.33 12.4202 12.71 12.7902C12.89 12.9802 13 13.2402 13 13.5002C13 13.5602 12.99 13.6302 12.98 13.7002C12.97 13.7602 12.95 13.8202 12.92 13.8802C12.9 13.9402 12.87 14.0002 12.83 14.0602C12.79 14.1102 12.75 14.1602 12.71 14.2102C12.52 14.3902 12.26 14.5002 12 14.5002Z" />
<path d="M8.5 18.0002C8.24 18.0002 7.97999 17.8902 7.78999 17.7102C7.60999 17.5202 7.5 17.2602 7.5 17.0002C7.5 16.8702 7.53 16.7402 7.58 16.6202C7.63 16.4902 7.69999 16.3802 7.78999 16.2902C8.15999 15.9202 8.84001 15.9202 9.21001 16.2902C9.39001 16.4802 9.5 16.7402 9.5 17.0002C9.5 17.2602 9.39001 17.5202 9.21001 17.7102C9.02001 17.8902 8.76 18.0002 8.5 18.0002Z" />
<path d="M20.5 9.83984H3.5C3.09 9.83984 2.75 9.49984 2.75 9.08984C2.75 8.67984 3.09 8.33984 3.5 8.33984H20.5C20.91 8.33984 21.25 8.67984 21.25 9.08984C21.25 9.49984 20.91 9.83984 20.5 9.83984Z" />
<path d="M13.37 22.75H8C4.35 22.75 2.25 20.65 2.25 17V8.5C2.25 4.85 4.35 2.75 8 2.75H16C19.65 2.75 21.75 4.85 21.75 8.5V13C21.75 13.41 21.41 13.75 21 13.75C20.59 13.75 20.25 13.41 20.25 13V8.5C20.25 5.64 18.86 4.25 16 4.25H8C5.14 4.25 3.75 5.64 3.75 8.5V17C3.75 19.86 5.14 21.25 8 21.25H13.37C13.78 21.25 14.12 21.59 14.12 22C14.12 22.41 13.78 22.75 13.37 22.75Z" />
</svg>

<?xml version="1.0" encoding="UTF-8"?>
<svg width="24" height="24" viewBox="0 0 24 24" xmlns="http://www.w3.org/2000/svg">
 <path d="m8 5.75c-0.41 0-0.75-0.34-0.75-0.75v-3c0-0.41 0.34-0.75 0.75-0.75s0.75 0.34 0.75 0.75v3c0 0.41-0.34 0.75-0.75 0.75z"/>
 <path d="m16 5.75c-0.41 0-0.75-0.34-0.75-0.75v-3c0-0.41 0.34-0.75 0.75-0.75s0.75 0.34 0.75 0.75v3c0 0.41-0.34 0.75-0.75 0.75z"/>
 <path d="m18.2 22.15c-2.18 0-3.95-1.77-3.95-3.95s1.77-3.95 3.95-3.95 3.95 1.77 3.95 3.95-1.77 3.95-3.95 3.95zm0-6.4c-1.35 0-2.45 1.1-2.45 2.45s1.1 2.45 2.45 2.45 2.45-1.1 2.45-2.45-1.1-2.45-2.45-2.45z"/>
 <path d="m22 22.75c-0.19 0-0.38-0.07-0.53-0.22l-1-1c-0.29-0.29-0.29-0.77 0-1.06s0.77-0.29 1.06 0l1 1c0.29 0.29 0.29 0.77 0 1.06-0.15 0.15-0.34 0.22-0.53 0.22z"/>
 <path d="m8.5 14.5c-0.13 0-0.26-0.03-0.38-0.08-0.13-0.05-0.24001-0.12-0.33001-0.21-0.04-0.05-0.08999-0.1-0.11999-0.15-0.04-0.06-0.07-0.12-0.09-0.18-0.03-0.06-0.05-0.12-0.06-0.18-0.01-0.07-0.02-0.14-0.02-0.2 0-0.26 0.10999-0.52 0.28999-0.71 0.09-0.09 0.20001-0.16 0.33001-0.21 0.36-0.16 0.81001-0.07 1.09 0.21 0.18 0.19 0.28999 0.45 0.28999 0.71 0 0.06-0.01 0.13-0.02 0.2-0.01 0.06-0.03 0.12-0.06 0.18-0.02 0.06-0.05 0.12-0.09 0.18-0.04 0.05-0.07999 0.1-0.11999 0.15-0.19 0.18-0.45001 0.29-0.71001 0.29z"/>
 <path d="m12 14.5c-0.26 0-0.52-0.11-0.71-0.29-0.18-0.19-0.29-0.44-0.29-0.71 0-0.13 0.03-0.26 0.08-0.38s0.12-0.23 0.21-0.33c0.37-0.37 1.04-0.37 1.42 0 0.18 0.19 0.29 0.45 0.29 0.71 0 0.06-0.01 0.13-0.02 0.2-0.01 0.06-0.03 0.12-0.06 0.18-0.02 0.06-0.05 0.12-0.09 0.18l-0.12 0.15c-0.19 0.18-0.45 0.29-0.71 0.29z"/>
 <path d="m8.5 18c-0.26 0-0.52001-0.11-0.71001-0.29-0.18-0.19-0.28999-0.45-0.28999-0.71 0-0.13 0.03-0.26 0.08-0.38 0.05-0.13 0.11999-0.24 0.20999-0.33 0.37-0.37 1.05-0.37 1.42 0 0.18 0.19 0.28999 0.45 0.28999 0.71s-0.10999 0.52-0.28999 0.71c-0.19 0.18-0.45001 0.29-0.71001 0.29z"/>
 <path d="m20.5 9.8398h-17c-0.41 0-0.75-0.34-0.75-0.75s0.34-0.75 0.75-0.75h17c0.41 0 0.75 0.34 0.75 0.75s-0.34 0.75-0.75 0.75z"/>
 <path d="m13.37 22.75h-5.37c-3.65 0-5.75-2.1-5.75-5.75v-8.5c0-3.65 2.1-5.75 5.75-5.75h8c3.65 0 5.75 2.1 5.75 5.75v4.5c0 0.41-0.34 0.75-0.75 0.75s-0.75-0.34-0.75-0.75v-4.5c0-2.86-1.39-4.25-4.25-4.25h-8c-2.86 0-4.25 1.39-4.25 4.25v8.5c0 2.86 1.39 4.25 4.25 4.25h5.37c0.41 0 0.75 0.34 0.75 0.75s-0.34 0.75-0.75 0.75z"/>
</svg>
